billiards-rack.svg

<svg fill="currentColor" viewBox="0 0 24 24"><path d="m20.31 16.44-5.77-9.97a2.98 2.98 0 0 0-4.08-1.09c-.46.26-.83.62-1.1 1.09L3.6 16.44a2.953 2.953 0 0 0 1.09 4.06c.45.28.96.42 1.49.42h11.55a2.99 2.99 0 0 0 2.98-3c0-.52-.14-1.03-.4-1.48m-14.94.99 5.74-9.96c.27-.47.89-.65 1.35-.37.16.08.29.21.38.37l5.74 9.96c.27.48.11 1.07-.37 1.36-.15.09-.32.14-.49.14H6.21c-.55-.01-1-.46-.99-1.01 0-.17.04-.34.13-.49zm6.6-3.98c-1.1 0-1.97-.89-1.97-1.99 0-1.11.87-2 1.97-2a2 2 0 0 1 2 2c0 1.1-.9 1.99-2.02 1.99zm-2.51 4.48c-1.1 0-1.99-.89-1.99-1.99s.89-1.99 1.99-1.99 2 .89 2 1.99-.9 1.99-2 1.99m4.98 0a2 2 0 0 1-1.99-1.99 2 2 0 0 1 1.99-1.99c1.1 0 2 .89 2 1.99s-.9 1.99-2 1.99"/></svg>

<svg  viewBox="0 0 24 24" fill="currentColor"><path  d="M20.31,16.44L14.54,6.47C13.72,5.04 11.89,4.55 10.46,5.38C10,5.64 9.63,6 9.36,6.47L3.6,16.44C2.77,17.87 3.26,19.69 4.69,20.5C5.14,20.78 5.65,20.92 6.18,20.92H17.73C19.38,20.91 20.72,19.57 20.71,17.92C20.71,17.4 20.57,16.89 20.31,16.44M5.37,17.43L11.11,7.47C11.38,7 12,6.82 12.46,7.1C12.62,7.18 12.75,7.31 12.84,7.47L18.58,17.43C18.85,17.91 18.69,18.5 18.21,18.79C18.06,18.88 17.89,18.93 17.72,18.93H6.21C5.66,18.92 5.21,18.47 5.22,17.92C5.22,17.75 5.26,17.58 5.35,17.43H5.37M11.97,13.45C10.87,13.45 10,12.56 10,11.46C10,10.35 10.87,9.46 11.97,9.46A2,2 0 0,1 13.97,11.46C13.97,12.56 13.07,13.45 11.95,13.45H11.97M9.46,17.93C8.36,17.93 7.47,17.04 7.47,15.94C7.47,14.84 8.36,13.95 9.46,13.95C10.56,13.95 11.46,14.84 11.46,15.94C11.46,17.04 10.56,17.93 9.46,17.93M14.44,17.93A2,2 0 0,1 12.45,15.94A2,2 0 0,1 14.44,13.95C15.54,13.95 16.44,14.84 16.44,15.94C16.44,17.04 15.54,17.93 14.44,17.93Z"/></svg>
